package/converter/svg/solid/arrow-up-from-line.svg

<svg xmlns="http://www.w3.org/2000/svg" viewBox="0 0 384 512"><!-- Font Awesome Pro 6.0.0-alpha2 by @fontawesome - https://fontawesome.com License - https://fontawesome.com/license (Commercial License) --><path d="M86.625 214.625L160 141.25V320C160 337.688 174.312 352 192 352S224 337.688 224 320V141.25L297.375 214.625C303.625 220.875 311.812 224 320 224S336.375 220.875 342.625 214.625C355.125 202.125 355.125 181.875 342.625 169.375L214.625 41.375C202.125 28.875 181.875 28.875 169.375 41.375L41.375 169.375C28.875 181.875 28.875 202.125 41.375 214.625S74.125 227.125 86.625 214.625ZM352 416H32C14.312 416 0 430.312 0 448S14.312 480 32 480H352C369.688 480 384 465.688 384 448S369.688 416 352 416Z"/></svg>

<svg xmlns="http://www.w3.org/2000/svg" viewBox="0 0 384 512"><!--! Font Awesome Pro 6.6.0 by @fontawesome - https://fontawesome.com License - https://fontawesome.com/license (Commercial License) Copyright 2024 Fonticons, Inc. --><path d="M214.6 41.4c-12.5-12.5-32.8-12.5-45.3 0l-128 128c-12.5 12.5-12.5 32.8 0 45.3s32.8 12.5 45.3 0L160 141.3l0 66.7 0 112c0 17.7 14.3 32 32 32s32-14.3 32-32l0-112 0-66.7 73.4 73.4c12.5 12.5 32.8 12.5 45.3 0s12.5-32.8 0-45.3l-128-128zM32 416c-17.7 0-32 14.3-32 32s14.3 32 32 32l320 0c17.7 0 32-14.3 32-32s-14.3-32-32-32L32 416z"/></svg>
